X:1
T:The Maid on the Mountain's Brow
M:6/8
L:1/8
K:G
 d3 B2 G| c2 A F/2 D3/2 B,| C D2 G2 F| G3- G2 D| G2 G B2 c| d2 d e2 B|\
 c2 c d2 B| c3- c2 D| G2 G B2 c| d e2- e2 B| c2 c d2 B| c6| d2 d B2 G|\
 c2 A F/2 D3/2 B,/2B,/2| C/2 C3/2 D G2 F| G6|
